X: 24593
T: Lyndhurst
R: jig
M: 6/8
K: Bdorian
|:f|~B3 BcA|Bce fec|~A3 Ace|aga fec|
~B3 BcA|Bce fec|Ace fec|BcA [1B2:|2 Bc||
|:e|f2a fea|fga fec|~A3 Ace|aga fec|
[1 f2a fea|fga fec|~A3 fec|BcA Bc:|
[2 ~B3 BcA|Bce fec|Ace fec|BcA B2||
|:f|BcA cBB|fea fec|~A3 Ace|aga fec|
BcA cBB|fea fec|~A3 fec|BcA [1B2:|2 Bc||
|:e|fea f2e|afe fec|~A3 Ace|aga fec|
[1 fea f2e|afe fec|~A3 fec|BcA Bc:|
[2 BcA cBB|fea fec|Ace fec|BcA B2||

